X:1
T:James Gibb editions
T:All Lust and Freud - Hassler
T:#
%%score [ 1 2 3 4 ]
L:1/8
Q:1/4=240
M:6/4
K:Eb
V:1 treble nm="Soprano" snm="S"
V:2 treble nm="Alto" snm="A"
V:3 treble-8 nm="Tenor" snm="T"
V:4 bass nm="Bass" snm="B"
V:1
"^All Lust und Freud""^Hans Leo Hassler\n(1564-1612)" F4 c4 f4 | (e6 d2 c4) | e4 d4 c4 | %3
w: All Lust und|Freud * *|die Lieb mir|
w: Dem gold- gelbs|Haar, * *|dein Äug- lein|
w: Mit Tu- gend|fort, * *|o ed- ler|
 (=B6 c2 d4) | c4 c4 =B4 | (c6 _B2 A4) | G4 F4 F4 | (=E6 F2 G4) | F4 F4 =E4 | F8 z4 | A4 B4 c4 | %11
w: geit, * *|für Gut und|Geld * *|auf die- ser|Weit, * *|||Wenn ich al-|
w: klar, * *|dein Stir- ne|rund, * *|dein ro- ter|Mund, * *|fa la la|la.|Dein Zähn lein|
w: Hort, * *|bist du ge-|ziert, * *|wie sichs ge-|bührt, * *|||Ich sag es|
 (_d6 c2 B4) | A4 A4 G4 | A12 | c4 d4 =e4 | (f6 _e2 d4) | c4 c4 =B4 | c12 | c4 B4 A4 | %19
w: lein * *|kann bei dir|sein,|sag ich ohn|Scheu, * *|mich dünkt, ich|sei,|merk mich mit|
w: weiß, * *|dein Wäng- lein|heiss,|dein Füß- lein|klein, * *|dein Händ- lein|fein|ge- ben groß|
w: frei * *|ohn al- le|Scheu,|auf die- ser|Erd * *|nicht fun- den|werd|bei Arm und|
 (G6 F2 G2 A2) | B4 A4 G4 | (F6 E2 F2 G2) | A4 G4 F4 | (=E6 F2 G4) | F4 F4 =E4 | F12 :| %26
w: Fleiß, * * *|im Pa- ra-|deis, * * *|||||
w: Freud * * *|im al- ler|Zeit, * * *|fa la la|la, * *|fa la la|la.|
w: Reich, * * *|die dir sei|gleich, * * *|||||
V:2
 C4 C4 =B,4 | (C6 D2 E4) | C4 D4 G4 | G12 | G4 F4 D4 | (E6 D2 C4) | C4 C4 B,4 | C12 | C4 D4 C4 | %9
w: All Lust und|Freud * *|die Lieb mir|geit,|für Gut und|Geld * *|auf die- ser|Weit,||
w: Dem gold- gelbs|Haar, * *|dein Äug- lein|klar,|dein Stir- ne|rund, * *|dein ro- ter|Mund,|fa la la|
w: Mit Tu- gend|fort, * *|o ed- ler|Hort,|bist du ge-|ziert, * *|wie sichs ge-|bührt,||
 =A,8 z4 | F4 G4 E4 | (F6 E2 _D4) | E4 F4 B,4 | C12 | A4 G4 G4 | (A6 G2 F4) | =E4 F4 D4 | =E12 | %18
w: |Wenn ich al-|lein * *|kann bei dir|sein,|sag ich ohn|Scheu, * *|mich dünkt, ich|sei,|
w: la.|Dein Zähn lein|weiß, * *|dein Wäng- lein|heiß,|dein Füß- lein|klein, * *|dein Händ- lein|fein|
w: |Ich sag es|frei * *|ohn al- le|Scheu,|auf die- ser|Erd * *|nicht fun- den|werd|
 _E4 E4 E4 | E12 | F4 F4 C4 | C12 | E4 E4 C4 | C12 | C4 _D4 C4 | C12 :| %26
w: merk mich mit|Fleiß,|im Pa- ra-|deis,|||||
w: ge- ben groß|Freud|im al- ler|Zeit,|fa la la|la,|fa la la|la.|
w: bei Arm und|Reich,|die dir sei|gleich,|||||
V:3
 A4 G4 F4 | G8 g4 | g8 e4 | d12 | e4 d4 d4 | c12 | G4 A4 F4 | G12 | =A4 B4 G4 | F8 z4 | c4 G4 G4 | %11
w: All Lust und|Freud die|Lieb mir|geit,|für Gut und|Geld|auf die- ser|Weit,|||Wenn ich al-|
w: Dem gold- gelbs|Haar, dein|Äug- lein|klar,|dein Stir- ne|rund,|dein ro- ter|Mund,|fa la la|la.|Dein Zähn lein|
w: Mit Tu- gend|fort, o|ed- ler|Hort,|bist du ge-|ziert,|wie sichs ge-|bührt,|||Ich sag es|
 (B8 F4) | c4 B4 B4 | A12 | F4 B4 B4 | (c6 B2 A4) | G4 A4 G4 | G12 | A4 B4 c4 | (B6 A2 B2 c2) | %20
w: lein *|kann bei dir|sein,|sag ich ohn|Scheu, * *|mich dünkt, ich|sei,|merk mich mit|Fleiß, * * *|
w: weiß, *|dein Wäng- lein|heiß,|dein Füß- lein|klein, * *|dein Händ- lein|fein|ge- ben groß|Freud * * *|
w: frei *|ohn al- le|Scheu,|auf die- ser|Erd * *|nicht fun- den|werd|bei Arm und|Reich, * * *|
 _d4 c4 G4 | (A6 G2 A2 B2) | c4 B4 A4 | G12 | =A4 B4 G4 | =A12 :| %26
w: im Pa- ra-|deis, * * *|||||
w: im al- ler|Zeit, * * *|fa la la|la,|fa la la|la.|
w: die dir sei|gleich, * * *|||||
V:4
 F,4 E,4 D,4 | C,12 | C4 =B,4 C4 | (G,6 =A,2 =B,4) | C4 F,4 G,4 | (C,8 F,4) | =E,4 F,4 _D,4 | %7
w: All Lust und|Freud|die Lieb mir|geit, * *|für Gut und|Geld *|auf die- ser|
w: Dem gold- gelbs|Haar,|dein Äug- lein|klar, * *|dein Stir- ne|rund, *|dein ro- ter|
w: Mit Tu- gend|fort,|o ed- ler|Hort, * *|bist du ge-|ziert, *|wie sichs ge-|
 (C,6 !courtesy!=D,2 =E,4) | F,4 B,,4 C,4 | F,8 z4 | F,4 E,4 C,4 | (B,,6 C,2 _D,4) | %12
w: Weit, * *|||Wenn ich al-|lein * *|
w: Mund, * *|fa la la|la.|Dein Zähn lein|weiß, * *|
w: bührt, * *|||Ich sag es|frei * *|
 A,,4 _D,4 E,4 | A,,12 | A,4 B,4 G,4 | F,12 | C,4 F,4 G,4 | C,12 | C4 G,4 A,4 | E,12 | %20
w: kann bei dir|sein,|sag ich ohn|Scheu,|mich dünkt, ich|sei,|merk mich mit|Fleiß,|
w: dein Wäng- lein|heiß,|dein Füß- lein|klein,|dein Händ- lein|fein|ge- ben groß|Freud|
w: ohn al- le|Scheu,|auf die- ser|Erd|nicht fun- den|werd|bei Arm und|Reich,|
 B,,4 F,4 =E,4 | F,12 | C,4 _E,4 F,4 | (C,6 D,2 =E,4) | F,4 B,,4 C,4 | F,12 :| %26
w: im Pa- ra-|deis,|||||
w: im al- ler|Zeit,|fa la la|la, * *|fa la la|la.|
w: die dir sei|gleich,|||||

